portfolio/src/assets/images/screen.svg

<?xml version="1.0" encoding="UTF-8"?>
<svg viewBox="0 0 500 500" xmlns="http://www.w3.org/2000/svg">
<g fill="#fff">
<path d="m456.55 209.11c-48.74-83.48-180.95-53.75-207.95-94.35-13.83-20.76-29.3-44.89-51.74-57.42-21.39-12-46.19-16.21-67.81-14.63-77.21 5.65-109.94 74.73-95.11 150.59 19.8 101.19 109.5 204.56 216.06 205.28 55.74 0.42 109-19.58 150.7-47.71l0.93-0.63c41.7-28.39 92.14-77.4 54.92-141.13z"/>
<path d="m456.55 209.11c-48.74-83.48-180.95-53.75-207.95-94.35-13.83-20.76-29.3-44.89-51.74-57.42-21.39-12-46.19-16.21-67.81-14.63-77.21 5.65-109.94 74.73-95.11 150.59 19.8 101.19 109.5 204.56 216.06 205.28 55.74 0.42 109-19.58 150.7-47.71l0.93-0.63c41.7-28.39 92.14-77.4 54.92-141.13z" opacity=".7"/>
</g>
<g fill="none" stroke="#263238" stroke-dasharray="4.41241979598999" stroke-linecap="round" stroke-linejoin="round" stroke-width="1.1031px">
<path d="m78.19 215.18h-5.42a21.93 21.93 0 0 0-21.93 21.93v120.34a21.93 21.93 0 0 0 21.93 21.93h74.36a21.93 21.93 0 0 0 21.93-21.93"/>
<path d="m163 101.63v-23.77a13.43 13.43 0 0 1 13.4-13.43h96.7a13.43 13.43 0 0 1 13.43 13.43"/>
</g>
<g fill="#fff">
<ellipse cx="250" cy="445.4" rx="191.52" ry="26.76"/>
<ellipse cx="250" cy="445.4" rx="191.52" ry="26.76" opacity=".5"/>
</g>
<path d="m430.54 133.52v180.06a22.2 22.2 0 0 1-22.19 22.2h-316.7a22.2 22.2 0 0 1-22.19-22.2v-180.06c0-0.53 0-1 0.07-1.56a22.18 22.18 0 0 1 22.12-20.64h316.7a22.18 22.18 0 0 1 22.12 20.68c0.05 0.48 0.07 1 0.07 1.52z" fill="#fff" stroke="#263238" stroke-linecap="round" stroke-linejoin="round" stroke-width="1.1031px"/>
<path d="m80.26 140.28h340.61v166.33a20.8 20.8 0 0 1-20.8 20.8h-299a20.8 20.8 0 0 1-20.8-20.8v-166.33z" fill="#263238"/>
<path d="M420.88,140.28V306.61a20.69,20.69,0,0,1-20.57,20.8H100.83a20.69,20.69,0,0,1-20.57-20.8V140.28Z" fill="#fff" opacity=".2"/>
<path d="M430.47,132H69.53a22.18,22.18,0,0,1,22.12-20.64h316.7A22.18,22.18,0,0,1,430.47,132Z" fill="#fff" stroke="#263238" stroke-miterlimit="10" stroke-width="1.1031px"/>
<path d="m113.88 121.64a3.93 3.93 0 1 1-3.93-3.93 3.93 3.93 0 0 1 3.93 3.93z" fill="#263238"/>
<path d="m130.5 121.64a3.93 3.93 0 1 1-3.93-3.93 3.93 3.93 0 0 1 3.93 3.93z" fill="#263238"/>
<circle cx="143.19" cy="121.64" r="3.93" fill="#263238"/>
<path d="M420.87,140.28V306.61a20.8,20.8,0,0,1-20.8,20.8h-299a20.8,20.8,0,0,1-20.4-16.76v-.06a21,21,0,0,1-.38-4V140.28Z" fill="none" stroke="#263238" stroke-miterlimit="10" stroke-width="1.1031px"/>
<path d="M420.55,166a20.94,20.94,0,0,0-4.62-1.91l-1.87-8.35h-7.94l-1.85,8.35a20.25,20.25,0,0,0-4.64,1.91l-7.17-4.59L386.85,167l4.51,7.17a20.35,20.35,0,0,0-1.91,4.64l-8.35,1.85v7.94l8.35,1.87a20,20,0,0,0,1.91,4.66l-4.59,7.22,5.62,5.61,7.21-4.59a20.39,20.39,0,0,0,4.63,1.92l1.86,8.34H414l1.86-8.34a20.78,20.78,0,0,0,4.62-1.92l.37.24V165.8Zm-10.44,29a10.26,10.26,0,1,1,10.26-10.25A10.25,10.25,0,0,1,410.11,195Z" fill="#263238"/>
<path d="m277.45 174.05v-16.74l-17.6-3.91a45.51 45.51 0 0 0-4-9.77l2.13-3.35h-83.1l2.05 3.26a43 43 0 0 0-4 9.76l-17.61 3.92v16.78l17.61 3.93a43.65 43.65 0 0 0 4 9.84l-9.67 15.21 11.85 11.84 15.2-9.68a44.38 44.38 0 0 0 9.77 4.05l3.92 17.55h16.7l3.94-17.59a44.64 44.64 0 0 0 9.74-4.05l15.21 9.68 11.84-11.84-9.61-15.21a45.87 45.87 0 0 0 4-9.75zm-61 13.26a21.63 21.63 0 1 1 21.63-21.63 21.62 21.62 0 0 1-21.63 21.63z" fill="#263238"/>
<path d="M166.38,289l.71-13.29-13.77-3.88a37.21,37.21,0,0,0-2.82-7.9l8.32-11.68-8.92-9.89-12.46,7a36.51,36.51,0,0,0-7.59-3.63l-2.38-14.12L114.19,231l-3.84,13.81a35,35,0,0,0-7.9,2.8l-11.67-8.31-9.91,8.91,7.06,12.47a35,35,0,0,0-3.64,7.58l-4,.66v18l2.92.82A34.6,34.6,0,0,0,86,295.65l-5.74,8.05.38,6.89v.06l5.93,6.57,12.48-7.05a34.66,34.66,0,0,0,7.61,3.67L109,327.4h0l.11.57,13.28.7.35-1.27h0l3.49-12.53a35.53,35.53,0,0,0,7.94-2.8l11.65,8.3,9.9-8.9-7-12.48a34.53,34.53,0,0,0,3.59-7.57Zm-35.27-20.75a17.2,17.2,0,1,0-1.28,24.28A17.2,17.2,0,0,0,131.11,268.29Z" fill="#263238"/>
<path d="M272.6,269.19a27.25,27.25,0,0,0,.81-6.29l9.55-5-2.64-9.69-10.78.5a27.27,27.27,0,0,0-3.87-5l3.19-10.31-8.7-5-7.28,7.94a28.8,28.8,0,0,0-6.27-.8l-5-9.55-9.68,2.63.51,10.79a27.24,27.24,0,0,0-5,3.87l-10.32-3.19-5,8.69,8,7.27a26,26,0,0,0-.79,6.27l-9.57,5,2.64,9.68,10.8-.51a25.39,25.39,0,0,0,3.85,5l-3.21,10.26,8.71,5,7.24-7.88a26.12,26.12,0,0,0,6.29.79l5,9.56,9.68-2.63-.43-9.22-.07-1.58a26.41,26.41,0,0,0,5.06-3.87l10.31,3.2,4.26-7.44.72-1.26Zm-22.87,5.88a13,13,0,1,1,9.1-15.9A13,13,0,0,1,249.73,275.07Z" fill="#263238"/>
<path d="M383.32,286.23l2.2-13.3-13.46-5.41a35.27,35.27,0,0,0-1.93-8.3l9.69-10.79-7.84-11-13.36,5.67a35.38,35.38,0,0,0-7.22-4.48l-.78-14.49-13.3-2.2-5.45,13.4a37.15,37.15,0,0,0-8.27,1.95l-10.82-9.69-10.95,7.84,5.68,13.35a36.24,36.24,0,0,0-4.05,6.29c-.15.31-.31.62-.45.93l-14.48.8-2.21,13.28,2.18.88,11.28,4.55a35.18,35.18,0,0,0,1.93,8.26L292,294.63l7.85,11,13.35-5.7a35.06,35.06,0,0,0,7.21,4.52l.75,14.42,13.29,2.2,5.44-13.3a35.13,35.13,0,0,0,8.28-1.94l10.8,9.69,11-7.85-5.68-13.36a34.78,34.78,0,0,0,4.55-7.25Zm-37.3-.6a17.41,17.41,0,1,1,4-24.29A17.41,17.41,0,0,1,346,285.63Z" fill="#263238"/>
<rect x="85.39" y="187.77" width="130.8" height="171.01" rx="13.11" fill="#fff" stroke="#263238" stroke-miterlimit="10" stroke-width="1.1031px"/>
<rect x="85.39" y="187.77" width="130.8" height="171.01" rx="13.11" opacity=".2"/>
<path d="M228.36,213.8V358.59a13.11,13.11,0,0,1-13.11,13.12H110.67a13.11,13.11,0,0,1-13.1-13.12V213.8a13.11,13.11,0,0,1,13.1-13.11H215.25A13.11,13.11,0,0,1,228.36,213.8Z" fill="#fff" stroke="#263238" stroke-linecap="round" stroke-linejoin="round" stroke-width="1.1031px"/>
<path d="M228.36,213.8v7.75H97.57V213.8a13.11,13.11,0,0,1,13.1-13.11H215.25A13.11,13.11,0,0,1,228.36,213.8Z" fill="#fff" stroke="#263238" stroke-miterlimit="10" stroke-width="1.1031px"/>
<rect x="109.87" y="230.53" width="32.18" height="5.4" fill="#fff"/>
<rect x="109.87" y="278.92" width="32.18" height="5.4" fill="#fff"/>
<rect x="109.87" y="322.8" width="32.18" height="5.4" fill="#fff"/>
<rect x="109.87" y="243.9" width="91.39" height="3.96" fill="#263238"/>
<rect x="109.87" y="251.47" width="74.91" height="3.86" fill="#263238"/>
<rect x="109.87" y="258.92" width="84.72" height="3.86" fill="#263238"/>
<rect x="109.87" y="266.36" width="84.72" height="3.86" fill="#263238"/>
<rect x="109.87" y="287.78" width="91.39" height="3.96" fill="#263238"/>
<rect x="109.87" y="295.35" width="74.91" height="3.86" fill="#263238"/>
<rect x="109.87" y="302.8" width="84.72" height="3.86" fill="#263238"/>
<rect x="109.87" y="335.96" width="91.39" height="3.96" fill="#263238"/>
<rect x="109.87" y="343.54" width="74.91" height="3.86" fill="#263238"/>
<rect x="109.87" y="350.99" width="84.72" height="3.86" fill="#263238"/>
<path d="m375.77 100.29v58.52a15.63 15.63 0 0 1-15.64 15.63h-134.78a15.63 15.63 0 0 1-15.64-15.63v-58.52a15.65 15.65 0 0 1 15.64-15.64h134.78a15.64 15.64 0 0 1 15.64 15.64z" fill="#fff" stroke="#222221" stroke-miterlimit="10" stroke-width="1.1031px"/>
<path d="m375.77 100.29v1.34h-166.06v-1.34a15.65 15.65 0 0 1 15.64-15.64h134.78a15.64 15.64 0 0 1 15.64 15.64z" fill="#fff" stroke="#263238" stroke-miterlimit="10" stroke-width="1.1031px"/>
<path d="m234.11 95.94a2.4 2.4 0 1 1 0-3.39 2.41 2.41 0 0 1 0 3.39z" fill="#263238"/>
<path d="m245.23 95.94a2.4 2.4 0 1 1 0-3.39 2.41 2.41 0 0 1 0 3.39z" fill="#263238"/>
<path d="m256.35 95.94a2.4 2.4 0 1 1 0-3.39 2.41 2.41 0 0 1 0 3.39z" fill="#263238"/>
<rect x="220.3" y="112.39" width="54.28" height="46.92" fill="none" stroke="#263238" stroke-dasharray="4.41241979598999" stroke-linecap="round" stroke-linejoin="round" stroke-width="1.1031px"/>
<rect x="282.96" y="112.39" width="62.47" height="3.3" fill="#263238"/>
<rect x="282.96" y="119.22" width="47.92" height="3.29" fill="#263238"/>
<rect x="282.96" y="126.02" width="71.35" height="3.33" fill="#263238"/>
<rect x="282.96" y="132.65" width="60.76" height="3.33" fill="#263238"/>
<rect x="343.23" y="245.53" width="43.61" height="30.99" rx="6.53" fill="#fff" stroke="#263238" stroke-linecap="round" stroke-linejoin="round" stroke-width="1.1031px"/>
<polyline points="357.3 254.85 348.91 260.11 356.7 267.01" fill="none" stroke="#263238" stroke-linecap="round" stroke-linejoin="round" stroke-width="1.1031px"/>
<polyline points="372.58 267.51 380.12 261.09 371.42 255.39" fill="none" stroke="#263238" stroke-linecap="round" stroke-linejoin="round" stroke-width="1.1031px"/>
<line x1="361.38" x2="367.57" y1="271.47" y2="252.05" fill="none" stroke="#263238" stroke-linecap="round" stroke-linejoin="round" stroke-width="1.1031px"/>
</svg>

<svg xmlns="http://www.w3.org/2000/svg" viewBox="0 0 500 500"><g id="freepik--background-simple--inject-10"><path d="M456.55,209.11c-48.74-83.48-180.95-53.75-207.95-94.35C234.77,94,219.3,69.87,196.86,57.34c-21.39-12-46.19-16.21-67.81-14.63C51.84,48.36,19.11,117.44,33.94,193.3,53.74,294.49,143.44,397.86,250,398.58,305.74,399,359,379,400.7,350.87l.93-.63C443.33,321.85,493.77,272.84,456.55,209.11Z" style="fill:#FFFFFF"></path><path d="M456.55,209.11c-48.74-83.48-180.95-53.75-207.95-94.35C234.77,94,219.3,69.87,196.86,57.34c-21.39-12-46.19-16.21-67.81-14.63C51.84,48.36,19.11,117.44,33.94,193.3,53.74,294.49,143.44,397.86,250,398.58,305.74,399,359,379,400.7,350.87l.93-.63C443.33,321.85,493.77,272.84,456.55,209.11Z" style="fill:#fff;opacity:0.7000000000000001"></path></g><g id="freepik--Lines--inject-10"><path d="M78.19,215.18H72.77a21.93,21.93,0,0,0-21.93,21.93V357.45a21.93,21.93,0,0,0,21.93,21.93h74.36a21.93,21.93,0,0,0,21.93-21.93h0" style="fill:none;stroke:#263238;stroke-linecap:round;stroke-linejoin:round;stroke-width:1.10311px;stroke-dasharray:4.41241979598999"></path><path d="M163,101.63V77.86A13.43,13.43,0,0,1,176.4,64.43h96.7a13.43,13.43,0,0,1,13.43,13.43h0" style="fill:none;stroke:#263238;stroke-linecap:round;stroke-linejoin:round;stroke-width:1.10311px;stroke-dasharray:4.41241979598999"></path></g><g id="freepik--Shadow--inject-10"><ellipse cx="250" cy="445.4" rx="191.52" ry="26.76" style="fill:#FFFFFF"></ellipse><ellipse cx="250" cy="445.4" rx="191.52" ry="26.76" style="fill:#fff;opacity:0.5"></ellipse></g><g id="freepik--Window--inject-10"><path d="M430.54,133.52V313.58a22.2,22.2,0,0,1-22.19,22.2H91.65a22.2,22.2,0,0,1-22.19-22.2V133.52c0-.53,0-1,.07-1.56a22.18,22.18,0,0,1,22.12-20.64h316.7A22.18,22.18,0,0,1,430.47,132C430.52,132.48,430.54,133,430.54,133.52Z" style="fill:#fff;stroke:#263238;stroke-linecap:round;stroke-linejoin:round;stroke-width:1.10311px"></path><path d="M80.26,140.28H420.87a0,0,0,0,1,0,0V306.61a20.8,20.8,0,0,1-20.8,20.8h-299a20.8,20.8,0,0,1-20.8-20.8V140.28a0,0,0,0,1,0,0Z" style="fill:#263238"></path><path d="M420.88,140.28V306.61a20.69,20.69,0,0,1-20.57,20.8H100.83a20.69,20.69,0,0,1-20.57-20.8V140.28Z" style="fill:#fff;opacity:0.2"></path><path d="M430.47,132H69.53a22.18,22.18,0,0,1,22.12-20.64h316.7A22.18,22.18,0,0,1,430.47,132Z" style="fill:#FFFFFF;stroke:#263238;stroke-miterlimit:10;stroke-width:1.10311px"></path><path d="M113.88,121.64a3.93,3.93,0,1,1-3.93-3.93A3.93,3.93,0,0,1,113.88,121.64Z" style="fill:#263238"></path><path d="M130.5,121.64a3.93,3.93,0,1,1-3.93-3.93A3.93,3.93,0,0,1,130.5,121.64Z" style="fill:#263238"></path><circle cx="143.19" cy="121.64" r="3.93" style="fill:#263238"></circle><path d="M420.87,140.28V306.61a20.8,20.8,0,0,1-20.8,20.8h-299a20.8,20.8,0,0,1-20.4-16.76v-.06a21,21,0,0,1-.38-4V140.28Z" style="fill:none;stroke:#263238;stroke-miterlimit:10;stroke-width:1.10311px"></path><path d="M420.55,166a20.94,20.94,0,0,0-4.62-1.91l-1.87-8.35h-7.94l-1.85,8.35a20.25,20.25,0,0,0-4.64,1.91l-7.17-4.59L386.85,167l4.51,7.17a20.35,20.35,0,0,0-1.91,4.64l-8.35,1.85v7.94l8.35,1.87a20,20,0,0,0,1.91,4.66l-4.59,7.22,5.62,5.61,7.21-4.59a20.39,20.39,0,0,0,4.63,1.92l1.86,8.34H414l1.86-8.34a20.78,20.78,0,0,0,4.62-1.92l.37.24V165.8Zm-10.44,29a10.26,10.26,0,1,1,10.26-10.25A10.25,10.25,0,0,1,410.11,195Z" style="fill:#263238"></path><path d="M277.45,174.05V157.31l-17.6-3.91a45.51,45.51,0,0,0-4-9.77l2.13-3.35h-83.1l2.05,3.26a43,43,0,0,0-4,9.76l-17.61,3.92V174l17.61,3.93a43.65,43.65,0,0,0,4,9.84l-9.67,15.21,11.85,11.84,15.2-9.68a44.38,44.38,0,0,0,9.77,4.05L208,226.74H224.7l3.94-17.59a44.64,44.64,0,0,0,9.74-4.05l15.21,9.68,11.84-11.84-9.61-15.21a45.87,45.87,0,0,0,4-9.75Zm-61,13.26a21.63,21.63,0,1,1,21.63-21.63A21.62,21.62,0,0,1,216.45,187.31Z" style="fill:#263238"></path><path d="M166.38,289l.71-13.29-13.77-3.88a37.21,37.21,0,0,0-2.82-7.9l8.32-11.68-8.92-9.89-12.46,7a36.51,36.51,0,0,0-7.59-3.63l-2.38-14.12L114.19,231l-3.84,13.81a35,35,0,0,0-7.9,2.8l-11.67-8.31-9.91,8.91,7.06,12.47a35,35,0,0,0-3.64,7.58l-4,.66v18l2.92.82A34.6,34.6,0,0,0,86,295.65l-5.74,8.05.38,6.89v.06l5.93,6.57,12.48-7.05a34.66,34.66,0,0,0,7.61,3.67L109,327.4h0l.11.57,13.28.7.35-1.27h0l3.49-12.53a35.53,35.53,0,0,0,7.94-2.8l11.65,8.3,9.9-8.9-7-12.48a34.53,34.53,0,0,0,3.59-7.57Zm-35.27-20.75a17.2,17.2,0,1,0-1.28,24.28A17.2,17.2,0,0,0,131.11,268.29Z" style="fill:#263238"></path><path d="M272.6,269.19a27.25,27.25,0,0,0,.81-6.29l9.55-5-2.64-9.69-10.78.5a27.27,27.27,0,0,0-3.87-5l3.19-10.31-8.7-5-7.28,7.94a28.8,28.8,0,0,0-6.27-.8l-5-9.55-9.68,2.63.51,10.79a27.24,27.24,0,0,0-5,3.87l-10.32-3.19-5,8.69,8,7.27a26,26,0,0,0-.79,6.27l-9.57,5,2.64,9.68,10.8-.51a25.39,25.39,0,0,0,3.85,5l-3.21,10.26,8.71,5,7.24-7.88a26.12,26.12,0,0,0,6.29.79l5,9.56,9.68-2.63-.43-9.22-.07-1.58a26.41,26.41,0,0,0,5.06-3.87l10.31,3.2,4.26-7.44.72-1.26Zm-22.87,5.88a13,13,0,1,1,9.1-15.9A13,13,0,0,1,249.73,275.07Z" style="fill:#263238"></path><path d="M383.32,286.23l2.2-13.3-13.46-5.41a35.27,35.27,0,0,0-1.93-8.3l9.69-10.79-7.84-11-13.36,5.67a35.38,35.38,0,0,0-7.22-4.48l-.78-14.49-13.3-2.2-5.45,13.4a37.15,37.15,0,0,0-8.27,1.95l-10.82-9.69-10.95,7.84,5.68,13.35a36.24,36.24,0,0,0-4.05,6.29c-.15.31-.31.62-.45.93l-14.48.8-2.21,13.28,2.18.88,11.28,4.55a35.18,35.18,0,0,0,1.93,8.26L292,294.63l7.85,11,13.35-5.7a35.06,35.06,0,0,0,7.21,4.52l.75,14.42,13.29,2.2,5.44-13.3a35.13,35.13,0,0,0,8.28-1.94l10.8,9.69,11-7.85-5.68-13.36a34.78,34.78,0,0,0,4.55-7.25Zm-37.3-.6a17.41,17.41,0,1,1,4-24.29A17.41,17.41,0,0,1,346,285.63Z" style="fill:#263238"></path></g><g id="freepik--Graphics--inject-10"><rect x="85.39" y="187.77" width="130.8" height="171.01" rx="13.11" style="fill:#FFFFFF;stroke:#263238;stroke-miterlimit:10;stroke-width:1.10311px"></rect><rect x="85.39" y="187.77" width="130.8" height="171.01" rx="13.11" style="opacity:0.2"></rect><path d="M228.36,213.8V358.59a13.11,13.11,0,0,1-13.11,13.12H110.67a13.11,13.11,0,0,1-13.1-13.12V213.8a13.11,13.11,0,0,1,13.1-13.11H215.25A13.11,13.11,0,0,1,228.36,213.8Z" style="fill:#fff;stroke:#263238;stroke-linecap:round;stroke-linejoin:round;stroke-width:1.10311px"></path><path d="M228.36,213.8v7.75H97.57V213.8a13.11,13.11,0,0,1,13.1-13.11H215.25A13.11,13.11,0,0,1,228.36,213.8Z" style="fill:#FFFFFF;stroke:#263238;stroke-miterlimit:10;stroke-width:1.10311px"></path><rect x="109.87" y="230.53" width="32.18" height="5.4" style="fill:#FFFFFF"></rect><rect x="109.87" y="278.92" width="32.18" height="5.4" style="fill:#FFFFFF"></rect><rect x="109.87" y="322.8" width="32.18" height="5.4" style="fill:#FFFFFF"></rect><rect x="109.87" y="243.9" width="91.39" height="3.96" style="fill:#263238"></rect><rect x="109.87" y="251.47" width="74.91" height="3.86" style="fill:#263238"></rect><rect x="109.87" y="258.92" width="84.72" height="3.86" style="fill:#263238"></rect><rect x="109.87" y="266.36" width="84.72" height="3.86" style="fill:#263238"></rect><rect x="109.87" y="287.78" width="91.39" height="3.96" style="fill:#263238"></rect><rect x="109.87" y="295.35" width="74.91" height="3.86" style="fill:#263238"></rect><rect x="109.87" y="302.8" width="84.72" height="3.86" style="fill:#263238"></rect><rect x="109.87" y="335.96" width="91.39" height="3.96" style="fill:#263238"></rect><rect x="109.87" y="343.54" width="74.91" height="3.86" style="fill:#263238"></rect><rect x="109.87" y="350.99" width="84.72" height="3.86" style="fill:#263238"></rect><path d="M375.77,100.29v58.52a15.63,15.63,0,0,1-15.64,15.63H225.35a15.63,15.63,0,0,1-15.64-15.63V100.29a15.65,15.65,0,0,1,15.64-15.64H360.13A15.64,15.64,0,0,1,375.77,100.29Z" style="fill:#fff;stroke:#222221;stroke-miterlimit:10;stroke-width:1.10311px"></path><path d="M375.77,100.29v1.34H209.71v-1.34a15.65,15.65,0,0,1,15.64-15.64H360.13A15.64,15.64,0,0,1,375.77,100.29Z" style="fill:#FFFFFF;stroke:#263238;stroke-miterlimit:10;stroke-width:1.10311px"></path><path d="M234.11,95.94a2.4,2.4,0,1,1,0-3.39A2.41,2.41,0,0,1,234.11,95.94Z" style="fill:#263238"></path><path d="M245.23,95.94a2.4,2.4,0,1,1,0-3.39A2.41,2.41,0,0,1,245.23,95.94Z" style="fill:#263238"></path><path d="M256.35,95.94a2.4,2.4,0,1,1,0-3.39A2.41,2.41,0,0,1,256.35,95.94Z" style="fill:#263238"></path><rect x="220.3" y="112.39" width="54.28" height="46.92" style="fill:none;stroke:#263238;stroke-linecap:round;stroke-linejoin:round;stroke-width:1.10311px;stroke-dasharray:4.41241979598999"></rect><rect x="282.96" y="112.39" width="62.47" height="3.3" style="fill:#263238"></rect><rect x="282.96" y="119.22" width="47.92" height="3.29" style="fill:#263238"></rect><rect x="282.96" y="126.02" width="71.35" height="3.33" style="fill:#263238"></rect><rect x="282.96" y="132.65" width="60.76" height="3.33" style="fill:#263238"></rect><rect x="343.23" y="245.53" width="43.61" height="30.99" rx="6.53" style="fill:#fff;stroke:#263238;stroke-linecap:round;stroke-linejoin:round;stroke-width:1.10311px"></rect><polyline points="357.3 254.85 348.91 260.11 356.7 267.01" style="fill:none;stroke:#263238;stroke-linecap:round;stroke-linejoin:round;stroke-width:1.10311px"></polyline><polyline points="372.58 267.51 380.12 261.09 371.42 255.39" style="fill:none;stroke:#263238;stroke-linecap:round;stroke-linejoin:round;stroke-width:1.10311px"></polyline><line x1="361.38" y1="271.47" x2="367.57" y2="252.05" style="fill:none;stroke:#263238;stroke-linecap:round;stroke-linejoin:round;stroke-width:1.10311px"></line></g></svg>
